docs/img/favicons/favicon.svg

<svg width="56" height="56" viewBox="0 0 56 56" fill="none" xmlns="http://www.w3.org/2000/svg">
<path fill-rule="evenodd" clip-rule="evenodd" d="M42.503 18.6893C43.5149 18.6893 44.3347 19.5928 44.3347 20.7067C44.3347 21.822 43.5149 22.7255 42.503 22.7255C41.4923 22.7255 40.6718 21.822 40.6718 20.7067C40.6718 19.5928 41.4923 18.6893 42.503 18.6893ZM42.503 23.9397C43.5149 23.9397 44.3347 24.844 44.3347 25.9586C44.3347 27.0738 43.5149 27.9767 42.503 27.9767C41.4923 27.9767 40.6718 27.0738 40.6718 25.9586C40.6718 24.844 41.4923 23.9397 42.503 23.9397ZM44.1759 23.333C44.9248 23.9134 45.4145 24.873 45.4145 25.9586C45.4145 27.7304 44.1113 29.1667 42.503 29.1667C40.8953 29.1667 39.5921 27.7304 39.5921 25.9586C39.5921 24.8723 40.0817 23.9128 40.83 23.333C40.0817 22.7539 39.5921 21.7929 39.5921 20.7074C39.5921 18.9356 40.8953 17.5 42.503 17.5C44.1113 17.5 45.4145 18.9363 45.4145 20.7074C45.4145 21.7929 44.9248 22.7532 44.1759 23.333Z" fill="#039AD4"/>
<path fill-rule="evenodd" clip-rule="evenodd" d="M27.3658 17.5C30.692 17.5 33.6348 19.1429 35.4293 21.6651L33.8689 23.1056C32.4725 20.9956 30.0812 19.6046 27.3658 19.6046C23.06 19.6046 19.5683 23.1016 19.5683 27.417C19.5683 31.7304 23.06 35.2274 27.3658 35.2274C31.0175 35.2274 34.083 32.7112 34.9299 29.3145H28.3447V27.3395H35.1612V27.3368L37.2625 27.3322L37.2632 27.4163C37.2632 32.8923 32.8313 37.3333 27.3658 37.3333C21.899 37.3333 17.4671 32.893 17.4671 27.4163C17.4671 21.939 21.8983 17.5 27.3658 17.5Z" fill="#039AD4"/>
<path fill-rule="evenodd" clip-rule="evenodd" d="M27.948 5.80309C40.1831 5.80309 50.1026 15.7408 50.1026 27.9997C50.1026 40.2586 40.1831 50.1962 27.948 50.1962C15.7117 50.1962 5.79347 40.2586 5.79347 27.9997C5.79347 15.7408 15.7117 5.80309 27.948 5.80309ZM27.948 0C43.3821 0 55.8947 12.5363 55.8947 27.9997C55.8947 43.4644 43.3821 56 27.948 56C12.5126 56 0 43.4644 0 27.9997C0 12.537 12.5126 0 27.948 0Z" fill="#039AD4"/>
</svg>

<svg width="56" height="56" fill="none" xmlns="http://www.w3.org/2000/svg"><path fill-rule="evenodd" clip-rule="evenodd" d="M42.503 18.69c1.012 0 1.832.903 1.832 2.017 0 1.115-.82 2.018-1.832 2.018-1.01 0-1.831-.903-1.831-2.018 0-1.114.82-2.018 1.831-2.018zm0 5.25c1.012 0 1.832.904 1.832 2.019 0 1.115-.82 2.018-1.832 2.018-1.01 0-1.831-.903-1.831-2.018 0-1.115.82-2.02 1.831-2.02zm1.673-.607c.749.58 1.238 1.54 1.238 2.626 0 1.771-1.303 3.208-2.911 3.208s-2.91-1.437-2.91-3.208c0-1.087.489-2.046 1.237-2.626-.748-.58-1.238-1.54-1.238-2.626 0-1.771 1.303-3.207 2.911-3.207s2.911 1.436 2.911 3.207c0 1.086-.49 2.046-1.238 2.626zM27.366 17.5a9.876 9.876 0 018.063 4.165l-1.56 1.44a7.786 7.786 0 00-6.503-3.5c-4.306 0-7.798 3.497-7.798 7.812 0 4.313 3.492 7.81 7.798 7.81 3.651 0 6.717-2.516 7.564-5.912h-6.585v-1.976h6.816v-.002l2.102-.005v.084c0 5.476-4.432 9.917-9.897 9.917-5.467 0-9.899-4.44-9.899-9.917 0-5.477 4.431-9.916 9.899-9.916z" fill="#039AD4"/><path fill-rule="evenodd" clip-rule="evenodd" d="M27.948 5.803c12.235 0 22.155 9.938 22.155 22.197 0 12.259-9.92 22.196-22.155 22.196C15.712 50.196 5.793 40.26 5.793 28c0-12.26 9.919-22.197 22.155-22.197zm0-5.803c15.434 0 27.947 12.536 27.947 28S43.382 56 27.948 56C12.513 56 0 43.464 0 28 0 12.537 12.513 0 27.948 0z" fill="#039AD4"/></svg>
